dist/img/avatar.svg

<svg width="18" height="14" viewBox="0 0 18 14" fill="none" xmlns="http://www.w3.org/2000/svg">
<path d="M15 13.5H3C1.6 13.5 0.5 12.4 0.5 11V3C0.5 1.6 1.6 0.5 3 0.5H15C16.4 0.5 17.5 1.6 17.5 3V11C17.5 12.4 16.4 13.5 15 13.5ZM3 1.5C2.2 1.5 1.5 2.2 1.5 3V11C1.5 11.8 2.2 12.5 3 12.5H15C15.8 12.5 16.5 11.8 16.5 11V3C16.5 2.2 15.8 1.5 15 1.5H3Z" fill="#316193"/>
<path d="M17 9.9C14.2 9.9 12.6 9 11.2 8.3C9.99998 7.6 8.79997 7 6.89997 7C3.69997 7 1.39997 9.7 1.39997 9.7C1.29997 9.8 1.19998 9.9 0.999975 9.9L0.599976 9.1C0.699976 9 3.19997 6 6.89997 6C9.09997 6 10.4 6.7 11.7 7.4C13 8.1 14.4 8.9 17 8.9V9.9Z" fill="#316193"/>
<path d="M13.5 6.39999C12.7 6.39999 12 5.69999 12 4.89999C12 4.09999 12.7 3.39999 13.5 3.39999C14.3 3.39999 15 4.09999 15 4.89999C15 5.69999 14.3 6.39999 13.5 6.39999ZM13.5 4.39999C13.2 4.39999 13 4.59999 13 4.89999C13 5.19999 13.2 5.39999 13.5 5.39999C13.8 5.39999 14 5.19999 14 4.89999C14 4.59999 13.8 4.39999 13.5 4.39999Z" fill="#316193"/>
</svg>

<svg width="18" height="14" fill="none" xmlns="http://www.w3.org/2000/svg"><path d="M15 13.5H3C1.6 13.5.5 12.4.5 11V3C.5 1.6 1.6.5 3 .5h12c1.4 0 2.5 1.1 2.5 2.5v8c0 1.4-1.1 2.5-2.5 2.5zM3 1.5c-.8 0-1.5.7-1.5 1.5v8c0 .8.7 1.5 1.5 1.5h12c.8 0 1.5-.7 1.5-1.5V3c0-.8-.7-1.5-1.5-1.5H3z" fill="#316193"/><path d="M17 9.9c-2.8 0-4.4-.9-5.8-1.6C10 7.6 8.8 7 6.9 7 3.7 7 1.4 9.7 1.4 9.7c-.1.1-.2.2-.4.2l-.4-.8C.7 9 3.2 6 6.9 6c2.2 0 3.5.7 4.8 1.4 1.3.7 2.7 1.5 5.3 1.5v1zm-3.5-3.5c-.8 0-1.5-.7-1.5-1.5s.7-1.5 1.5-1.5 1.5.7 1.5 1.5-.7 1.5-1.5 1.5zm0-2c-.3 0-.5.2-.5.5s.2.5.5.5.5-.2.5-.5-.2-.5-.5-.5z" fill="#316193"/></svg>
